contributed-vectors/mint_mobile.svg

<?xml version="1.0" encoding="UTF-8" standalone="no"?>
<svg
   width="192"
   height="192"
   viewBox="0 0 192 192"
   fill="none"
   version="1.1"
   id="svg36"
   sodipodi:docname="mint_mobile.svg"
   inkscape:version="1.2 (dc2aedaf03, 2022-05-15)"
   inkscape:export-filename="mint_mobile.png"
   inkscape:export-xdpi="96"
   inkscape:export-ydpi="96"
   xmlns:inkscape="http://www.inkscape.org/namespaces/inkscape"
   xmlns:sodipodi="http://sodipodi.sourceforge.net/DTD/sodipodi-0.dtd"
   xmlns="http://www.w3.org/2000/svg"
   xmlns:svg="http://www.w3.org/2000/svg">
  <defs
     id="defs40" />
  <sodipodi:namedview
     id="namedview38"
     pagecolor="#505050"
     bordercolor="#eeeeee"
     borderopacity="1"
     inkscape:showpageshadow="0"
     inkscape:pageopacity="0"
     inkscape:pagecheckerboard="0"
     inkscape:deskcolor="#505050"
     showgrid="false"
     inkscape:zoom="1.2291667"
     inkscape:cx="-80.542374"
     inkscape:cy="30.101695"
     inkscape:window-width="1884"
     inkscape:window-height="1052"
     inkscape:window-x="36"
     inkscape:window-y="0"
     inkscape:window-maximized="1"
     inkscape:current-layer="svg36" />
  <path
     d="M162 20H30C24.4772 20 20 24.4772 20 30V162C20 167.523 24.4772 172 30 172H162C167.523 172 172 167.523 172 162V30C172 24.4772 167.523 20 162 20Z"
     fill="#98DC9A"
     id="path2" />
  <path
     d="m 139.448,118.479 c -2.46463,-1.74 -5.52991,-5.23208 -7.65025,-5.36195 -5.66473,9.88206 -17.29367,7.44402 -22.99828,5.23282 -3.73016,2.28318 -7.83231,5.32889 -12.45207,9.21013 l -13.0352,-9 c -9.4435,2.704 -16.6625,3.284 -23.3262,-4.237 -1.694,0.088 -3.5898,1.351 -7.466,4.237 1.1703,-4.318 2.1793,-5.731 5.4078,-7.749 l -5.6903,0.323 c 0.4603,-4.363 1.391,-6.746 3.6725,-10.937 l -2.5022,-1.9773 v -6.9012 h 5.65 c -2.1976,-4.2281 -3.1266,-7.392 -4.7218,-13.1971 2.6898,1.1915 4.2964,1.8619 6.78,2.6636 -0.1631,1.0927 2.1825,6.5756 3.511,8.2734 4.4417,-4.4706 8.011,-6.7223 15.4163,-10.4931 -3.0637,-2.5703 -5.33,-3.7876 -10.1296,-5.6501 l -0.5649,-6.0537 c 6.2149,1.574 10.0068,3.9285 17.4341,9.8474 7.2726,-0.8696 11.3183,-0.8528 18.4831,0 11.07,-9.2447 18.834,-11.1131 33.128,-12.2689 -0.874,13.8109 -1.795,20.5338 -5.711,27.1536 h 5.711 v 6.9481 l -2.375,1.8293 c 1.957,3.801 2.851,6.043 3.744,10.427 h -5.384 c 3.744,2.94 5.069,5.632 5.069,7.681 z"
     fill="#ffffff"
     id="path421"
     sodipodi:nodetypes="ccccccccccccccccccccccccccccc" />
  <path
     d="M54.804 92.9773V97.6908C56.2485 98.0124 56.8996 98.5707 57.7011 100.423V102.392C59.4328 114.515 62.5642 119.425 73.785 119.425C84.0569 119.425 90.5094 113.922 93.0478 102.724C94.6609 98.3352 97.9613 98.5838 98.9784 102.724C102.679 117.788 110.626 118.903 119.205 119.44C128.445 119.44 132.264 111.874 132.919 107.472L134.356 99.9604C134.945 98.7355 135.816 98.2879 137.157 97.3958V92.6122C131.821 92.4195 123.649 91.8758 117.714 91.6664C111.257 91.6664 107.26 92.6966 101.345 95.577H91.5777C86.5741 93.5024 83.7546 92.6371 78.6824 92.0011H65.7227C61.3719 92.0011 59.1248 91.9076 54.804 92.9773Z"
     fill="#98DC9A"
     id="path6" />
  <path
     d="M73.1148 117.76C65.7198 117.76 61.4499 114.357 59.9338 102.722C59.9338 95.2962 64.1418 93.78 74.4762 93.78C83.4183 93.78 90.3492 94.1203 89.9469 102.722C89.9469 113.367 82.4591 117.76 73.1148 117.76Z"
     fill="white"
     id="path8" />
  <path
     d="M131.718 101.763C131.718 112.871 127.231 117.791 118.351 117.791C107.119 117.791 102.138 111.696 102.138 102.66C102.138 95.2962 105.387 93.9037 117.052 93.9037C127.169 93.9037 131.718 94.2441 131.718 101.763Z"
     fill="white"
     id="path10" />
  <path
     d="M84.9027 95.6861C77.6093 95.6861 75.3721 95.6861 71.6072 99.3784C72.4075 97.2139 73.517 94.4129 78.5732 94.4129C78.5732 94.4129 83.2657 94.4129 84.9027 95.6861Z"
     fill="#98DC9A"
     id="path12" />
  <path
     d="M111.13 95.3587C109.529 95.3587 108.707 95.2157 107.038 95.7588C108.111 94.9767 109.893 94.4129 113.003 94.4129C117.623 94.4129 119.751 96.7774 120.624 99.5785C118.096 96.9593 115.768 95.3587 111.13 95.3587Z"
     fill="#98DC9A"
     id="path14" />
  <path
     d="M85.1391 105.308H79.0279C78.3732 104.78 77.7002 100.142 81.8835 100.142C85.4483 100.142 86.194 103.962 85.1391 105.308Z"
     fill="#98DC9A"
     id="path16" />
  <path
     d="M113.185 105.235H107.038C105.528 103.362 107.038 100.124 110.02 100.124C112.949 100.124 114.713 103.198 113.185 105.235Z"
     fill="#98DC9A"
     id="path18" />
  <path
     d="M96.3318 125.359L90.4053 120.507L101.783 120.506L96.3318 125.359Z"
     fill="#98DC9A"
     id="path20" />
  <path
     d="M67.7595 66.9492L55.5423 77.1265C60.0352 79.529 62.978 80.4067 68.993 81.1121V72.2869C68.993 70.2705 68.5898 68.7522 67.7595 66.9492Z"
     fill="white"
     id="path22" />
  <ellipse
     cx="58.5846"
     cy="95.7861"
     rx="2.30988"
     ry="0.882149"
     fill="white"
     id="ellipse24" />
  <ellipse
     cx="133.233"
     cy="95.8097"
     rx="2.30988"
     ry="0.882149"
     fill="white"
     id="ellipse26" />
  <path
     d="M69.0973 112.947L64.6048 112.947C66.8238 115.257 68.4061 116.676 72.8986 116.676C75.4631 116.676 76.5544 116.676 78.4823 116.039C75.1721 114.093 72.7349 112.947 69.0973 112.947Z"
     fill="#98DC9A"
     id="path28" />
  <path
     d="M118.842 116.676C116.041 116.676 115.568 116.676 113.476 116.094C115.095 114.711 117.623 113.184 120.679 113.184H127.117C125.298 115.275 122.261 116.676 118.842 116.676Z"
     fill="#98DC9A"
     id="path30" />
  <path
     d="M127.778 88.6798C122.886 83.9293 119.241 81.6915 111.812 78.5499C119.166 73.4968 123.247 71.9074 133.092 70.1756C133.092 72.9512 130.885 84.3147 127.778 88.6798Z"
     fill="#98DC9A"
     id="path32" />
</svg>

<svg width="192" height="192" viewBox="0 0 192 192" fill="none" xmlns="http://www.w3.org/2000/svg">
<path d="M162 20H30C24.4772 20 20 24.4772 20 30V162C20 167.523 24.4772 172 30 172H162C167.523 172 172 167.523 172 162V30C172 24.4772 167.523 20 162 20Z" fill="#98DC9A"/>
<path d="M139.448 118.479C126.86 109.592 116.556 110.582 96.3474 127.56L83.3122 118.56C73.8687 121.264 66.6497 121.844 59.986 114.323C58.292 114.411 56.3962 115.674 52.52 118.56C53.6903 114.242 54.6993 112.829 57.9278 110.811L52.2375 111.134C52.6978 106.771 53.6285 104.388 55.91 100.197L53.4078 98.2197V91.3185H59.0578C56.8602 87.0904 55.9312 83.9265 54.336 78.1214C57.0258 79.3129 58.6324 79.9833 61.116 80.785C60.9529 81.8777 63.2985 87.3606 64.627 89.0584C69.0687 84.5878 72.638 82.3361 80.0433 78.5653C76.9796 75.995 74.7133 74.7777 69.9137 72.9152L69.3488 66.8615C75.5637 68.4355 79.3556 70.79 86.7829 76.7089C94.0555 75.8393 98.1012 75.8561 105.266 76.7089C116.336 67.4642 124.1 65.5958 138.394 64.44C137.52 78.2509 136.599 84.9738 132.683 91.5936H138.394V98.5417L136.019 100.371C137.976 104.172 138.87 106.414 139.763 110.798H134.379C138.123 113.738 139.448 116.43 139.448 118.479Z" fill="white"/>
<path d="M54.804 92.9773V97.6908C56.2485 98.0124 56.8996 98.5707 57.7011 100.423V102.392C59.4328 114.515 62.5642 119.425 73.785 119.425C84.0569 119.425 90.5094 113.922 93.0478 102.724C94.6609 98.3352 97.9613 98.5838 98.9784 102.724C102.679 117.788 110.626 118.903 119.205 119.44C128.445 119.44 132.264 111.874 132.919 107.472L134.356 99.9604C134.945 98.7355 135.816 98.2879 137.157 97.3958V92.6122C131.821 92.4195 123.649 91.8758 117.714 91.6664C111.257 91.6664 107.26 92.6966 101.345 95.577H91.5777C86.5741 93.5024 83.7546 92.6371 78.6824 92.0011H65.7227C61.3719 92.0011 59.1248 91.9076 54.804 92.9773Z" fill="#98DC9A"/>
<path d="M73.1148 117.76C65.7198 117.76 61.4499 114.357 59.9338 102.722C59.9338 95.2962 64.1418 93.78 74.4762 93.78C83.4183 93.78 90.3492 94.1203 89.9469 102.722C89.9469 113.367 82.4591 117.76 73.1148 117.76Z" fill="white"/>
<path d="M131.718 101.763C131.718 112.871 127.231 117.791 118.351 117.791C107.119 117.791 102.138 111.696 102.138 102.66C102.138 95.2962 105.387 93.9037 117.052 93.9037C127.169 93.9037 131.718 94.2441 131.718 101.763Z" fill="white"/>
<path d="M84.9027 95.6861C77.6093 95.6861 75.3721 95.6861 71.6072 99.3784C72.4075 97.2139 73.517 94.4129 78.5732 94.4129C78.5732 94.4129 83.2657 94.4129 84.9027 95.6861Z" fill="#98DC9A"/>
<path d="M111.13 95.3587C109.529 95.3587 108.707 95.2157 107.038 95.7588C108.111 94.9767 109.893 94.4129 113.003 94.4129C117.623 94.4129 119.751 96.7774 120.624 99.5785C118.096 96.9593 115.768 95.3587 111.13 95.3587Z" fill="#98DC9A"/>
<path d="M85.1391 105.308H79.0279C78.3732 104.78 77.7002 100.142 81.8835 100.142C85.4483 100.142 86.194 103.962 85.1391 105.308Z" fill="#98DC9A"/>
<path d="M113.185 105.235H107.038C105.528 103.362 107.038 100.124 110.02 100.124C112.949 100.124 114.713 103.198 113.185 105.235Z" fill="#98DC9A"/>
<path d="M96.3318 125.359L90.4053 120.507L101.783 120.506L96.3318 125.359Z" fill="#98DC9A"/>
<path d="M67.7595 66.9492L55.5423 77.1265C60.0352 79.529 62.978 80.4067 68.993 81.1121V72.2869C68.993 70.2705 68.5898 68.7522 67.7595 66.9492Z" fill="white"/>
<ellipse cx="58.5846" cy="95.7861" rx="2.30988" ry="0.882149" fill="white"/>
<ellipse cx="133.233" cy="95.8097" rx="2.30988" ry="0.882149" fill="white"/>
<path d="M69.0973 112.947L64.6048 112.947C66.8238 115.257 68.4061 116.676 72.8986 116.676C75.4631 116.676 76.5544 116.676 78.4823 116.039C75.1721 114.093 72.7349 112.947 69.0973 112.947Z" fill="#98DC9A"/>
<path d="M118.842 116.676C116.041 116.676 115.568 116.676 113.476 116.094C115.095 114.711 117.623 113.184 120.679 113.184H127.117C125.298 115.275 122.261 116.676 118.842 116.676Z" fill="#98DC9A"/>
<path d="M127.778 88.6798C122.886 83.9293 119.241 81.6915 111.812 78.5499C119.166 73.4968 123.247 71.9074 133.092 70.1756C133.092 72.9512 130.885 84.3147 127.778 88.6798Z" fill="#98DC9A"/>
<path d="M130.365 113.769C123.937 119.221 119.506 119.857 109.691 117.77L108.773 118.243C119.296 121.052 124.713 119.78 131.197 113.945L130.365 113.769Z" fill="white"/>
</svg>
